X: 40028
T: Three Sisters, The
R: reel
M: 4/4
K: Amajor
|:B|c2 ec BcAF|(3EFE EF ABce|f2 af ecAB|cABA FAEA|
c2 ec BcAF|(3EFE EF ABce|f2 af ecAB|cABA FA A:|
|:E|(3ABA ce agae|(3fga ec BAFE|Ac (3ccc fcec|ABcA BAFE|
A2 ce agae|(3fga ec BAFE|Ac (3ccc fcec|AcBA FA A:|

